packages/kaspersky-hexa-ui-icons/src/iconsSVGs/28x20/FlagKp.svg

<svg width="28" height="20" viewBox="0 0 28 20" fill="none" xmlns="http://www.w3.org/2000/svg">
<g clip-path="url(#clip0_5138_1210)">
<rect width="28" height="20" rx="2" fill="white"/>
<mask id="mask0_5138_1210" style="mask-type:luminance" maskUnits="userSpaceOnUse" x="0" y="0" width="28" height="20">
<rect width="28" height="20" rx="2" fill="white"/>
</mask>
<g mask="url(#mask0_5138_1210)">
<path fill-rule="evenodd" clip-rule="evenodd" d="M0 4H28V0H0V4Z" fill="#1461B6"/>
<path fill-rule="evenodd" clip-rule="evenodd" d="M0 20H28V16H0V20Z" fill="#1461B6"/>
<path fill-rule="evenodd" clip-rule="evenodd" d="M0 16H28V4H0V16Z" fill="white"/>
<path fill-rule="evenodd" clip-rule="evenodd" d="M0 14.6667H28V5.33334H0V14.6667Z" fill="#F53846"/>
<path fill-rule="evenodd" clip-rule="evenodd" d="M10 13.3333C11.8409 13.3333 13.3333 11.8409 13.3333 10C13.3333 8.15905 11.8409 6.66666 10 6.66666C8.15905 6.66666 6.66666 8.15905 6.66666 10C6.66666 11.8409 8.15905 13.3333 10 13.3333ZM8.04071 12.6967L10 11.3376L11.9593 12.6967L11.2721 10.4133L13.1702 8.96994L10.7862 8.91787L10 6.66666L9.21379 8.91787L6.82981 8.96994L8.72788 10.4133L8.04071 12.6967Z" fill="white"/>
</g>
</g>
<defs>
<clipPath id="clip0_5138_1210">
<rect width="28" height="20" fill="white"/>
</clipPath>
</defs>
</svg>

<svg xmlns="http://www.w3.org/2000/svg" width="28" height="20" fill="none" viewBox="0 0 28 20"><g clip-path="url(#a)"><rect width="28" height="20" fill="#fff" rx="2"/><mask id="b" width="28" height="20" x="0" y="0" maskUnits="userSpaceOnUse" style="mask-type:luminance"><rect width="28" height="20" fill="#fff" rx="2"/></mask><g fill-rule="evenodd" clip-rule="evenodd" mask="url(#b)"><path fill="#1461b6" d="M0 4h28V0H0zm0 16h28v-4H0z"/><path fill="#fff" d="M0 16h28V4H0z"/><path fill="#f53846" d="M0 14.6667h28V5.3333H0z"/><path fill="#fff" d="M10 13.3333c1.8409 0 3.3333-1.4924 3.3333-3.3333S11.8409 6.6667 10 6.6667 6.6667 8.159 6.6667 10 8.159 13.3333 10 13.3333m-1.9593-.6366L10 11.3376l1.9593 1.3591-.6872-2.2834 1.8981-1.4434-2.384-.052L10 6.6667l-.7862 2.2512-2.384.052 1.898 1.4434z"/></g></g><defs><clipPath id="a"><path fill="#fff" d="M0 0h28v20H0z"/></clipPath></defs></svg>
